icons/main-library-two-color.svg

<?xml version="1.0" encoding="UTF-8"?><svg id="uuid-2875232a-e0e4-4f04-a032-6ddbe9226558" xmlns="http://www.w3.org/2000/svg" viewBox="0 0 50 50"><path d="M39.86,21.91c-.28,0-.5-.22-.5-.5v-3.32c0-.28,.22-.5,.5-.5h.32v-2.67c0-.28,.22-.5,.5-.5h1.21v-2.43H10.85v2.43h1.21c.28,0,.5,.22,.5,.5v2.67h.32c.28,0,.5,.22,.5,.5v3.32c0,.28-.22,.5-.5,.5H3.33v18.84H49.42V21.91h-9.55ZM7.63,35.09h-3.04v-3.59h3.04v3.59Zm0-7.67h-3.04v-3.59h3.04v3.59Zm12.53-10.58h2.77v14.89h-2.77v-14.89Zm-6.15,0h2.77v14.89h-2.77v-14.89Zm12.66,22.17H14.81v-2.92h11.86v2.92Zm2.41-7.28h-2.77v-14.89h2.77v14.89Zm6.15,0h-2.77v-14.89h2.77v14.89Zm9.35,3.49h-3.04v-3.59h3.04v3.59Zm0-7.67h-3.04v-3.59h3.04v3.59Z" fill="#ffcd00"/><path d="M48.17,19.16h-9.55v-2.32h.32c.28,0,.5-.22,.5-.5v-2.67h1.21c.28,0,.5-.22,.5-.5v-3.43c0-.28-.22-.5-.5-.5H8.6c-.28,0-.5,.22-.5,.5v3.43c0,.28,.22,.5,.5,.5h1.21v2.67c0,.28,.22,.5,.5,.5h.32v2.32H1.08c-.28,0-.5,.22-.5,.5v19.84c0,.28,.22,.5,.5,.5H48.17c.28,0,.5-.22,.5-.5V19.66c0-.28-.22-.5-.5-.5ZM1.58,39.01V20.16H10.64v18.84H1.58ZM9.1,10.24h31.04v2.43H9.1v-2.43Zm28.51,21.45h-1.38v-14.85h1.38v14.85Zm-6.15,0h-1.38v-14.85h1.38v14.85Zm-6.15,0h-1.38v-14.85h1.38v14.85Zm-6.15,0h-1.38v-14.85h1.38v14.85Zm-5.15-14.85h2.77v14.89h-2.77v-14.89Zm6.15,0h2.77v14.89h-2.77v-14.89Zm6.15,0h2.77v14.89h-2.77v-14.89Zm6.15,0h2.77v14.89h-2.77v-14.89Zm5.97-3.17v2.17H10.82v-2.17h27.61Zm-25.42,3.17v14.85h-1.38v-14.85h1.38Zm-1.38,15.89h25.97v6.28h-9.94v-3.42c0-.28-.22-.5-.5-.5H14.31c-.28,0-.5,.22-.5,.5v3.42h-2.17v-6.28Zm15.03,6.28H14.81v-2.92h11.86v2.92Zm20.99,0h-9.05V20.16h9.05v18.84Z"/><path d="M41.04,28.55h4.04c.28,0,.5-.22,.5-.5v-4.59c0-.28-.22-.5-.5-.5h-4.04c-.28,0-.5,.22-.5,.5v4.59c0,.28,.22,.5,.5,.5Zm.5-4.59h3.04v3.59h-3.04v-3.59Z"/><path d="M41.04,36.22h4.04c.28,0,.5-.22,.5-.5v-4.59c0-.28-.22-.5-.5-.5h-4.04c-.28,0-.5,.22-.5,.5v4.59c0,.28,.22,.5,.5,.5Zm.5-4.59h3.04v3.59h-3.04v-3.59Z"/><path d="M8.13,22.83H4.09c-.28,0-.5,.22-.5,.5v4.59c0,.28,.22,.5,.5,.5h4.04c.28,0,.5-.22,.5-.5v-4.59c0-.28-.22-.5-.5-.5Zm-.5,4.59h-3.04v-3.59h3.04v3.59Z"/><path d="M8.13,30.49H4.09c-.28,0-.5,.22-.5,.5v4.59c0,.28,.22,.5,.5,.5h4.04c.28,0,.5-.22,.5-.5v-4.59c0-.28-.22-.5-.5-.5Zm-.5,4.59h-3.04v-3.59h3.04v3.59Z"/></svg>

<svg id="b362de3b-6c68-4113-852b-93404939c782" data-name="ICONS" xmlns="http://www.w3.org/2000/svg" viewBox="0 0 50 50"><path d="M39.86,21.91a.5.5,0,0,1-.5-.5V18.09a.5.5,0,0,1,.5-.5h.32V14.92a.5.5,0,0,1,.5-.5H41.9V12h-31v2.43h1.22a.5.5,0,0,1,.5.5v2.67h.32a.5.5,0,0,1,.5.5v3.32a.5.5,0,0,1-.5.5H3.33V40.76H49.42V21.91ZM7.63,35.09h-3v-3.6h3Zm0-7.67h-3V23.83h3ZM20.16,16.84h2.78V31.73H20.16Zm-6.14,0h2.77V31.73H14ZM26.67,39H14.81V36.09H26.67Zm2.42-7.28H26.31V16.84h2.78Zm6.14,0H32.46V16.84h2.77Zm9.36,3.49H41.54v-3.6h3.05Zm0-7.67H41.54V24h3.05Z" fill="#fdd600"/><path d="M48.17,19.16H38.61V16.84h.32a.5.5,0,0,0,.5-.5V13.67h1.22a.5.5,0,0,0,.5-.5V9.74a.51.51,0,0,0-.5-.5H8.6a.51.51,0,0,0-.5.5v3.43a.5.5,0,0,0,.5.5H9.82v2.67a.5.5,0,0,0,.5.5h.32v2.32H1.08a.51.51,0,0,0-.5.5V39.51a.51.51,0,0,0,.5.5H48.17a.51.51,0,0,0,.5-.5V19.66A.51.51,0,0,0,48.17,19.16ZM1.58,39V20.16h9.06V39ZM9.1,10.24H40.15v2.43H9.1ZM37.61,31.69H36.23V16.84h1.38Zm-6.15,0H30.09V16.84h1.37Zm-6.15,0H23.94V16.84h1.37Zm-6.15,0H17.79V16.84h1.37ZM14,16.84h2.77V31.73H14Zm6.14,0h2.78V31.73H20.16Zm6.15,0h2.78V31.73H26.31Zm6.15,0h2.77V31.73H32.46Zm6-3.17v2.17H10.82V13.67ZM13,16.84V31.69H11.64V16.84ZM11.64,32.73h26V39H27.67V35.59a.5.5,0,0,0-.5-.5H14.31a.5.5,0,0,0-.5.5V39H11.64Zm15,6.28H14.81V36.09H26.67Zm21,0H38.61V20.16h9.06Z" fill="#231f20"/><path d="M41,28.55h4.05a.5.5,0,0,0,.5-.5V23.46a.5.5,0,0,0-.5-.5H41a.5.5,0,0,0-.5.5v4.59A.5.5,0,0,0,41,28.55Zm.5-4.59h3.05v3.59H41.54Z" fill="#231f20"/><path d="M41,36.22h4.05a.51.51,0,0,0,.5-.5v-4.6a.51.51,0,0,0-.5-.5H41a.51.51,0,0,0-.5.5v4.6A.51.51,0,0,0,41,36.22Zm.5-4.6h3.05v3.6H41.54Z" fill="#231f20"/><path d="M8.13,22.83h-4a.5.5,0,0,0-.5.5v4.59a.5.5,0,0,0,.5.5h4a.5.5,0,0,0,.5-.5V23.33A.5.5,0,0,0,8.13,22.83Zm-.5,4.59h-3V23.83h3Z" fill="#231f20"/><path d="M8.13,30.49h-4a.5.5,0,0,0-.5.5v4.6a.5.5,0,0,0,.5.5h4a.5.5,0,0,0,.5-.5V31A.5.5,0,0,0,8.13,30.49Zm-.5,4.6h-3v-3.6h3Z" fill="#231f20"/></svg>
